images/EXPERIENCIA-TOGGLE/GESTION RRHH ICON.svg

<svg width="27" height="26" viewBox="0 0 27 26" fill="none" xmlns="http://www.w3.org/2000/svg">
<path d="M24.0079 16.1758C24.5746 18.0393 24.3772 19.7344 23.3062 21.1764C24.2863 22.2435 25.2266 23.2697 26.1698 24.2944C26.3161 24.4539 26.4723 24.6047 26.6257 24.7555C26.9411 25.0658 27.1925 25.4113 26.7976 25.8139C26.4283 26.1901 26.1144 25.9266 25.8274 25.6338C24.8516 24.6384 23.8743 23.6444 22.8971 22.6505C22.7295 22.4807 22.5576 22.3167 22.3673 22.1293C21.1272 22.9169 19.8304 23.3253 18.3759 22.9696C17.2509 22.6944 16.2935 22.1352 15.6216 21.1749C15.2992 20.7123 14.954 20.5996 14.4427 20.6011C9.99246 20.6186 5.54224 20.6113 1.09202 20.6098C0.0508475 20.6098 -0.0372194 20.5542 0.0096549 19.4988C0.0693131 18.1183 -0.00312899 16.6852 0.337775 15.3736C0.934357 13.0709 2.47411 11.5719 4.77947 11.0347C5.10049 10.96 5.5323 10.9542 5.79508 11.1167C7.79647 12.3492 9.83621 12.1487 11.8518 11.2689C12.6586 10.9161 13.3177 10.963 14.0677 11.3362C14.3205 11.4621 14.7452 11.4212 15.008 11.285C15.7637 10.8927 16.4313 10.6219 17.3304 11.023C18.4213 11.5104 19.5903 11.345 20.7267 10.9439C21.0889 10.8166 21.5661 10.8005 21.9227 10.9308C23.7053 11.5836 24.7394 13.1617 24.738 15.0647C24.7365 15.6151 24.684 16.0953 24.0079 16.1758ZM16.2807 14.0063C15.3503 13.4618 14.4341 12.9333 13.5265 12.3902C13.1288 12.1516 12.7765 12.1663 12.3362 12.3434C10.2353 13.1924 8.08481 13.5994 5.95843 12.5059C5.22406 12.1282 4.6147 12.1853 3.97834 12.5586C3.55079 12.8089 3.12608 13.0943 2.77098 13.4398C1.09487 15.0676 1.09202 17.1844 1.16589 19.3699C5.66582 19.3699 10.126 19.3699 14.5833 19.3699C14.7424 16.0762 14.7424 16.0762 16.2807 14.0063ZM15.7154 18.0349C15.7125 20.1765 17.3886 21.9112 19.444 21.8922C21.4823 21.8732 23.1414 20.1692 23.1556 18.0788C23.1698 15.9489 21.5036 14.1952 19.4511 14.1791C17.4 14.1615 15.7182 15.8991 15.7154 18.0349ZM23.4965 15.0003C23.6016 13.737 22.8474 12.5864 21.6457 12.1048C21.4511 12.0272 21.1826 12.0228 20.9852 12.0931C19.5463 12.6098 18.1216 12.5952 16.6841 12.0828C16.4469 11.9979 16.1571 12.0711 15.8915 12.0711C16.2324 12.5395 16.6074 12.7972 16.9242 13.1163C17.1955 13.3915 17.427 13.431 17.7921 13.3037C19.7693 12.6171 21.5065 13.0665 22.9979 14.5626C23.1386 14.7017 23.2962 14.8246 23.4965 15.0003Z" fill="white"/>
<path d="M14.0847 5.06651C14.0876 7.8947 11.9271 10.1139 9.18281 10.1037C6.49393 10.0934 4.30362 7.86103 4.28232 5.10603C4.25817 2.34811 6.49677 0.0147087 9.17855 7.00768e-05C11.8717 -0.0145686 14.0805 2.26613 14.0847 5.06651ZM5.48968 5.05041C5.4769 7.20083 7.11892 8.90916 9.19843 8.91062C11.2339 8.91208 12.9086 7.214 12.9285 5.12946C12.9484 2.97465 11.3262 1.26485 9.24247 1.24728C7.14591 1.22825 5.50247 2.89413 5.48968 5.05041Z" fill="white"/>
<path d="M18.8943 10.5399C17.0236 10.5238 15.5847 9.02041 15.5975 7.0925C15.6103 5.19972 17.1273 3.6451 18.9469 3.65973C20.7323 3.67437 22.2934 5.30951 22.2749 7.1452C22.2536 9.03944 20.7437 10.556 18.8943 10.5399ZM21.0647 7.11446C21.0619 5.85992 20.123 4.89963 18.9057 4.90548C17.6926 4.91134 16.748 5.88481 16.7537 7.1247C16.7594 8.34264 17.7409 9.35124 18.9213 9.35124C20.1116 9.34978 21.0676 8.35289 21.0647 7.11446Z" fill="white"/>
</svg>

<svg width="27" height="26" fill="none" xmlns="http://www.w3.org/2000/svg"><path d="M24.008 16.176c.567 1.863.37 3.558-.702 5 .98 1.068 1.92 2.094 2.864 3.118.146.16.302.31.456.462.315.31.566.655.172 1.058-.37.376-.684.113-.97-.18-.976-.996-1.954-1.99-2.93-2.983-.168-.17-.34-.334-.53-.522-1.24.788-2.538 1.196-3.992.84-1.125-.275-2.082-.834-2.754-1.794-.323-.463-.668-.575-1.18-.574-4.45.018-8.9.01-13.35.009-1.041 0-1.13-.056-1.082-1.111.06-1.38-.013-2.814.328-4.125.596-2.303 2.136-3.802 4.441-4.34.321-.074.753-.08 1.016.083 2.001 1.232 4.041 1.032 6.057.152.807-.353 1.466-.306 2.216.067.252.126.677.085.94-.051.756-.392 1.423-.663 2.322-.262 1.091.487 2.26.322 3.397-.08.362-.126.84-.143 1.196-.012 1.782.653 2.816 2.23 2.815 4.134-.002.55-.054 1.03-.73 1.11Zm-7.727-2.17c-.93-.544-1.847-1.073-2.754-1.616-.398-.238-.75-.224-1.19-.047-2.102.85-4.252 1.256-6.379.163-.734-.378-1.343-.32-1.98.053-.427.25-.852.535-1.207.88-1.676 1.629-1.679 3.745-1.605 5.93h13.417c.16-3.293.16-3.293 1.698-5.363Zm-.566 4.029c-.002 2.142 1.674 3.876 3.729 3.857 2.038-.019 3.697-1.723 3.712-3.813.014-2.13-1.652-3.884-3.705-3.9-2.051-.018-3.733 1.72-3.736 3.856ZM23.497 15c.105-1.263-.65-2.414-1.851-2.895a1.011 1.011 0 0 0-.66-.012c-1.44.517-2.864.502-4.302-.01-.237-.085-.527-.012-.793-.012.341.469.716.726 1.033 1.045.271.276.503.315.868.188 1.977-.687 3.714-.238 5.206 1.259.14.139.298.262.498.437ZM14.085 5.067c.003 2.828-2.158 5.047-4.902 5.037-2.69-.01-4.88-2.243-4.9-4.998C4.257 2.348 6.496.015 9.178 0c2.693-.015 4.902 2.266 4.906 5.067ZM5.49 5.05C5.477 7.2 7.119 8.91 9.198 8.91c2.036.002 3.71-1.696 3.73-3.78.02-2.155-1.602-3.865-3.686-3.883-2.096-.019-3.74 1.647-3.752 3.803ZM18.894 10.54c-1.87-.016-3.31-1.52-3.296-3.447.012-1.893 1.53-3.448 3.349-3.433 1.785.014 3.346 1.65 3.328 3.485-.021 1.894-1.531 3.411-3.38 3.395Zm2.17-3.426c-.002-1.254-.941-2.214-2.158-2.209-1.213.006-2.158.98-2.152 2.22.005 1.218.987 2.226 2.167 2.226 1.19-.001 2.147-.998 2.144-2.237Z" fill="#fff"/></svg>
